mapstyles/mapsforge_peruskartta/mml/SRMete.svg

<?xml version="1.0" encoding="UTF-8" standalone="no"?>
<!-- Created with Inkscape (http://www.inkscape.org/) -->

<svg
   xmlns:dc="http://purl.org/dc/elements/1.1/"
   xmlns:cc="http://creativecommons.org/ns#"
   xmlns:rdf="http://www.w3.org/1999/02/22-rdf-syntax-ns#"
   xmlns:svg="http://www.w3.org/2000/svg"
   xmlns="http://www.w3.org/2000/svg"
   xmlns:sodipodi="http://sodipodi.sourceforge.net/DTD/sodipodi-0.dtd"
   xmlns:inkscape="http://www.inkscape.org/namespaces/inkscape"
   version="1.1"
   width="211.25"
   height="860.63"
   id="svg2"
   xml:space="preserve"
   inkscape:version="0.48.4 r9939"
   sodipodi:docname="SRMete.svg"><sodipodi:namedview
     pagecolor="#ffffff"
     bordercolor="#666666"
     borderopacity="1"
     objecttolerance="10"
     gridtolerance="10"
     guidetolerance="10"
     inkscape:pageopacity="0"
     inkscape:pageshadow="2"
     inkscape:window-width="1920"
     inkscape:window-height="1012"
     id="namedview10"
     showgrid="false"
     inkscape:zoom="1.3485026"
     inkscape:cx="154.85669"
     inkscape:cy="706.56317"
     inkscape:window-x="-8"
     inkscape:window-y="-8"
     inkscape:window-maximized="1"
     inkscape:current-layer="svg2" /><metadata
     id="metadata8"><rdf:RDF><cc:Work
         rdf:about=""><dc:format>image/svg+xml</dc:format><dc:type
           rdf:resource="http://purl.org/dc/dcmitype/StillImage" /></cc:Work></rdf:RDF></metadata><defs
     id="defs6" /><g
     transform="matrix(1.25,0,0,-1.25,15.625,845.00499)"
     id="g10"><g
       transform="scale(0.1,0.1)"
       id="g12"><path
         d="m 1440,720 c 0,397.64 -322.36,720 -720,720 C 322.355,1440 0,1117.64 0,720 0,322.355 322.355,0 720,0 c 397.64,0 720,322.355 720,720"
         inkscape:connector-curvature="0"
         id="path14"
         style="fill:none;stroke:#000000;stroke-width:250;stroke-linecap:butt;stroke-linejoin:miter;stroke-miterlimit:10;stroke-opacity:1;stroke-dasharray:none" /><path
         d="m 870,720 c 0,82.84 -67.16,150 -150,150 -82.84,0 -150,-67.16 -150,-150 0,-82.84 67.16,-150 150,-150 82.84,0 150,67.16 150,150 m -200,720 0,3220 m 150,0 0,-3220"
         inkscape:connector-curvature="0"
         id="path16"
         style="fill:none;stroke:#000000;stroke-width:250;stroke-linecap:butt;stroke-linejoin:miter;stroke-miterlimit:10;stroke-opacity:1;stroke-dasharray:none" /><path
         d="m 870,720 c 0,82.84 -67.16,150 -150,150 -82.84,0 -150,-67.16 -150,-150 0,-82.84 67.16,-150 150,-150 82.84,0 150,67.16 150,150 m -200,720 0,3220 m 150,0 0,-3220 m -80,0 0,2720 -720,1250 720,0 -720,1250 1440,0 -720,-1250 720,0 -720,-1250 m -600,2350 1200,0 m -100,-150 -1000,0 m 100,-200 800,0 m -100,-200 -600,0 m 150,-200 300,0 m -750,-500 1200,0 m -100,-150 -1000,0 m 100,-200 800,0 m -100,-200 -600,0 m 150,-200 300,0"
         inkscape:connector-curvature="0"
         id="path18"
         style="fill:none;stroke:#000000;stroke-width:200;stroke-linecap:butt;stroke-linejoin:miter;stroke-miterlimit:10;stroke-opacity:1;stroke-dasharray:none" /></g></g></svg>

<svg xmlns="http://www.w3.org/2000/svg" xml:space="preserve" width="211.25" height="860.63"><path d="M1440 720c0 397.64-322.36 720-720 720-397.645 0-720-322.36-720-720C0 322.355 322.355 0 720 0c397.64 0 720 322.355 720 720" style="fill:none;stroke:#000;stroke-width:250;stroke-linecap:butt;stroke-linejoin:miter;stroke-miterlimit:10;stroke-opacity:1;stroke-dasharray:none" transform="matrix(.13 0 0 -.13 15.625 845.005)"/><path d="M870 720c0 82.84-67.16 150-150 150s-150-67.16-150-150 67.16-150 150-150 150 67.16 150 150m-200 720v3220m150 0V1440" style="fill:none;stroke:#000;stroke-width:250;stroke-linecap:butt;stroke-linejoin:miter;stroke-miterlimit:10;stroke-opacity:1;stroke-dasharray:none" transform="matrix(.13 0 0 -.13 15.625 845.005)"/><path d="M870 720c0 82.84-67.16 150-150 150s-150-67.16-150-150 67.16-150 150-150 150 67.16 150 150m-200 720v3220m150 0V1440m-80 0v2720L20 5410h720L20 6660h1440L740 5410h720L740 4160M140 6510h1200m-100-150H240m100-200h800m-100-200H440m150-200h300m-750-500h1200m-100-150H240m100-200h800m-100-200H440m150-200h300" style="fill:none;stroke:#000;stroke-width:200;stroke-linecap:butt;stroke-linejoin:miter;stroke-miterlimit:10;stroke-opacity:1;stroke-dasharray:none" transform="matrix(.13 0 0 -.13 15.625 845.005)"/></svg>
